src/icons/icons_set_01/053-tripadvisor.svg

<svg height="50" viewBox="0 0 50 50" width="50" xmlns="http://www.w3.org/2000/svg"><path d="m15.4103892 16.6338969c2.4264046.1495806 4.5585888 1.0059703 6.3596229 2.6645064 1.7973818 1.6556596 2.8504876 3.720611 3.233177 6.1484185.3936465-2.399453 1.4191565-4.4446795 3.1824493-6.0834906 1.7669451-1.6408659 3.8703161-2.501365 6.2569501-2.6838204-2.8322256-1.2747223-5.8190691-1.8167463-8.8939758-1.876332-3.4937141-.0694481-6.8924661.4520292-10.1382235 1.8307181zm-.3960814 2.1097434c-4.2964283-.0378061-8.04175145 3.5928099-7.96667454 8.2174792.06939541 4.3127691 3.58015404 7.9684522 8.05595524 7.9298242 4.376375-.037806 7.8940326-3.6569159 7.902149-8.0391331.0068989-4.5022104-3.5537756-8.1081703-7.9914297-8.1081703zm11.9761873 8.0822814c0 4.4722121 3.5834006 8.1254296 7.9841249 8.1081703 4.417363-.0156156 7.9845307-3.5665101 7.9812841-8.0880345-.0032465-4.6595988-3.7359893-8.1628248-8.1525406-8.0715971-4.3601422.0916387-7.7730979 3.650341-7.8128684 8.0514613zm2.5213667-13.4507441c1.1164139.1602649 2.209696.4438104 3.2895861.7803667 1.8862566.5876379 3.6657822 1.4049888 5.3393885 2.4647917.1164707.0731466.2719002.1195823.4090677.1195823 1.9657976.0078078 3.9307835.0053421 5.8949577.006575.1582703 0 .3157289.0168483.4735933.0262998 0 .0390389.0056815.0554763-.0008116.0645169-.0917156.1430056-.1846486.2839565-.27677.4261402-.6667642 1.0359687-1.2369428 2.118784-1.5729627 3.3166613-.0365239.1286228-.0442345.2362879.0417995.3620342 1.7499007 2.5449242 2.3083106 5.3384644 1.5770209 8.3498005-.6411973 2.6406722-2.1362424 4.6998704-4.4080291 6.1582809-1.6236903 1.0421327-3.4174197 1.5385429-5.333707 1.5496381-.8051492.0045203-1.6062401-.1047885-2.3927214-.3110782-1.9162874-.5033961-3.5590513-1.4707385-4.9128706-2.9361349-.1785613-.1923178-.3465712-.3932653-.5369013-.6102393-.7158685 1.0803497-1.420374 2.1430291-2.1419239 3.2336522-.7187093-1.0873356-1.413475-2.1397417-2.1066175-3.1884493-.0478869.0258889-.0620907.0287655-.0710187.0378061-.015827.012739-.0292191.0287654-.0422054.0439701-1.6370824 1.958519-3.6970305 3.1588619-6.2066284 3.560346-1.3960246.223549-2.7786572.1434165-4.1345056-.2354661-1.921563-.5346272-3.55458726-1.5611443-4.87391175-3.075442-1.28929372-1.4814229-2.09119627-3.2003665-2.39231555-5.1551871-.34454214-1.8245541.07507691-3.5841803.17977876-4.0111424.3035542-1.2406146.83274495-2.38055 1.55916477-3.4284357.05113346-.0739684.06898959-.2058788.04464033-.2942299-.29624943-1.1000746-.80677241-2.1011137-1.40454693-3.0594156-.1517771-.2432738-.33358496-.4688775-.50159491-.7031108v-.0809543c.03368315.0041094.06696048.0102734.099832.0102734 2.01124951.0008219 4.0220932.0016437 6.03334268-.0020547.0876574 0 .1850545-.0365733.2597255-.0850637 1.4130692-.918441 2.9186656-1.6453861 4.5005564-2.2116554 1.1407631-.4076481 2.305064-.7257122 3.4933082-.9587127 1.1500971-.2251927 2.3062815-.3842248 3.4746405-.4618916 2.8484585-.2219052 5.1251151.0834199 6.6396395.2979283zm8.6704901 13.3507223c-.0012174-1.8040073-1.4418824-3.2702255-3.2108567-3.2702255-1.7896712 0-3.246569 1.4584105-3.2542796 3.2570756-.0060874 1.7908573 1.4581153 3.2809098 3.230742 3.285841 1.7758732.006986 3.235206-1.4719713 3.2343943-3.2726911zm-3.223843-5.002319c2.7332053-.0045203 4.9469596 2.2252162 4.9469596 4.989991 0 2.775459-2.1760129 4.9209538-4.7432374 5.0204002-2.8675321.1109526-5.1612331-2.2022039-5.1604215-5.0080722.002435-2.8379212 2.3127747-5.0491657 4.9566993-5.002319zm-16.8294428 4.9910594c-.0056814-1.8151026-1.4548687-3.2615959-3.2644251-3.2587193-1.7458425.0032875-3.208016 1.4949837-3.2039578 3.2689927.0040582 1.7949667 1.4654201 3.2702255 3.2433224 3.2751567 1.7665394.0045203 3.2295246-1.4855322 3.2250605-3.2854301zm-3.2205964-4.9912238c2.7319878-.0024656 4.9489886 2.2309694 4.9420897 4.9957441-.0077106 2.7976495-2.1861584 4.8967086-4.7079309 5.0125924-2.8784893.1331432-5.20100361-2.1898758-5.19572794-5.0109487.0056815-2.8580571 2.33184824-5.0450563 4.96156914-4.9973878zm20.0522712 3.3418516c.9057928-.0008219 1.6484454.7516012 1.6399232 1.6634673-.0085222.9139208-.7390003 1.6544267-1.6297776 1.6548376-.9171558 0-1.6545328-.7339309-1.6525037-1.6433314.0016233-.9435082.7178976-1.6741517 1.6423581-1.6749735zm-20.0603876-.0148348c.9195906-.0008219 1.6585909.7433825 1.6622433 1.6712751.0032466.9209067-.7422469 1.6762063-1.6573735 1.678261-.937041.0020547-1.6598084-.7310545-1.6589968-1.684836 0-.9365222.7211442-1.6634673 1.654127-1.6647001z" fill="#020203" fill-rule="evenodd"/></svg>

<?xml version="1.0" encoding="UTF-8"?>
<svg width="50px" height="50px" viewBox="0 0 50 50" version="1.1" xmlns="http://www.w3.org/2000/svg" xmlns:xlink="http://www.w3.org/1999/xlink">
    <!-- Generator: Sketch 52.6 (67491) - http://www.bohemiancoding.com/sketch -->
    <title>053-tripadvisor</title>
    <desc>Created with Sketch.</desc>
    <g id="053-tripadvisor" stroke="none" stroke-width="1" fill="none" fill-rule="evenodd">
        <path d="M15.4103892,16.6338969 C17.8367938,16.7834775 19.968978,17.6398672 21.7700121,19.2984033 C23.5673939,20.9540629 24.6204997,23.0190143 25.0031891,25.4468218 C25.3968356,23.0473688 26.4223456,21.0021423 28.1856384,19.3633312 C29.9525835,17.7224653 32.0559545,16.8619662 34.4425885,16.6795108 C31.6103629,15.4047885 28.6235194,14.8627645 25.5486127,14.8031788 C22.0548986,14.7337307 18.6561466,15.255208 15.4103892,16.6338969 Z M15.0143078,18.7436403 C10.7178795,18.7058342 6.97255635,22.3364502 7.04763326,26.9611195 C7.11702867,31.2738886 10.6277873,34.9295717 15.1035885,34.8909437 C19.4799635,34.8531377 22.9976211,31.2340278 23.0057375,26.8518106 C23.0126364,22.3496002 19.4519619,18.7436403 15.0143078,18.7436403 Z M26.9904951,26.8259217 C26.9904951,31.2981338 30.5738957,34.9513513 34.97462,34.934092 C39.391983,34.9184764 42.9591507,31.3675819 42.9559041,26.8460575 C42.9526576,22.1864587 39.2199148,18.6832327 34.8033635,18.7744604 C30.4432213,18.8660991 27.0302656,22.4248014 26.9904951,26.8259217 Z M29.5118618,13.3751776 C30.6282757,13.5354425 31.7215578,13.818988 32.8014479,14.1555443 C34.6877045,14.7431822 36.4672301,15.5605331 38.1408364,16.620336 C38.2573071,16.6934826 38.4127366,16.7399183 38.5499041,16.7399183 C40.5157017,16.7477261 42.4806876,16.7452604 44.4448618,16.7464933 C44.6031321,16.7464933 44.7605907,16.7633416 44.9184551,16.7727931 C44.9184551,16.811832 44.9241366,16.8282694 44.9176435,16.83731 C44.8259279,16.9803156 44.7329949,17.1212665 44.6408735,17.2634502 C43.9741093,18.2994189 43.4039307,19.3822342 43.0679108,20.5801115 C43.0313869,20.7087343 43.0236763,20.8163994 43.1097103,20.9421457 C44.859611,23.4870699 45.4180209,26.2806101 44.6867312,29.2919462 C44.0455339,31.9326184 42.5504888,33.9918166 40.2787021,35.4502271 C38.6550118,36.4923598 36.8612824,36.98877 34.9449951,36.9998652 C34.1398459,37.0043855 33.338755,36.8950767 32.5522737,36.688787 C30.6359863,36.1853909 28.9932224,35.2180485 27.6394031,33.7526521 C27.4608418,33.5603343 27.2928319,33.3593868 27.1025018,33.1424128 C26.3866333,34.2227625 25.6821278,35.2854419 24.9605779,36.376065 C24.2418686,35.2887294 23.5471029,34.2363233 22.8539604,33.1876157 C22.8060735,33.2135046 22.7918697,33.2163812 22.7829417,33.2254218 C22.7671147,33.2381608 22.7537226,33.2541872 22.7407363,33.2693919 C21.1036539,35.2279109 19.0437058,36.4282538 16.5341079,36.8297379 C15.1380833,37.0532869 13.7554507,36.9731544 12.3996023,36.5942718 C10.4780393,36.0596446 8.84501504,35.0331275 7.52569055,33.5188298 C6.23639683,32.0374069 5.43449428,30.3184633 5.133375,28.3636427 C4.78883286,26.5390886 5.20845191,24.7794624 5.31315376,24.3525003 C5.61670796,23.1118857 6.14589871,21.9719503 6.87231853,20.9240646 C6.92345199,20.8500962 6.94130812,20.7181858 6.91695886,20.6298347 C6.62070943,19.5297601 6.11018645,18.528721 5.51241193,17.5704191 C5.36063483,17.3271453 5.17882697,17.1015416 5.01081702,16.8673083 L5.01081702,16.786354 C5.04450017,16.7904634 5.0777775,16.7966274 5.11064902,16.7966274 C7.12189853,16.7974493 9.13274222,16.7982711 11.1439917,16.7945727 C11.2316491,16.7945727 11.3290462,16.7579994 11.4037172,16.709509 C12.8167864,15.791068 14.3223828,15.0641229 15.9042736,14.4978536 C17.0450367,14.0902055 18.2093376,13.7721414 19.3975818,13.5391409 C20.5476789,13.3139482 21.7038633,13.1549161 22.8722223,13.0772493 C25.7206808,12.8553441 27.9973374,13.1606692 29.5118618,13.3751776 Z M38.1823519,26.7258999 C38.1811345,24.9218926 36.7404695,23.4556744 34.9714952,23.4556744 C33.181824,23.4556744 31.7249262,24.9140849 31.7172156,26.71275 C31.7111282,28.5036073 33.1753309,29.9936598 34.9479576,29.998591 C36.7238308,30.005577 38.1831636,28.5266197 38.1823519,26.7258999 Z M34.9585089,21.7235809 C37.6917142,21.7190606 39.9054685,23.9487971 39.9054685,26.7135719 C39.9054685,29.4890309 37.7294556,31.6345257 35.1622311,31.7339721 C32.294699,31.8449247 30.000998,29.5317682 30.0018096,26.7258999 C30.0042446,23.8879787 32.3145843,21.6767342 34.9585089,21.7235809 Z M18.1290661,26.7146403 C18.1233847,24.8995377 16.6741974,23.4530444 14.864641,23.455921 C13.1187985,23.4592085 11.656625,24.9509047 11.6606832,26.7249137 C11.6647414,28.5198804 13.1261033,29.9951392 14.9040056,30.0000704 C16.670545,30.0045907 18.1335302,28.5145382 18.1290661,26.7146403 Z M14.9084697,21.7234165 C17.6404575,21.7209509 19.8574583,23.9543859 19.8505594,26.7191606 C19.8428488,29.5168101 17.664401,31.6158692 15.1426285,31.731753 C12.2641392,31.8648962 9.94162489,29.5418772 9.94690056,26.7208043 C9.95258206,23.8627472 12.2787488,21.675748 14.9084697,21.7234165 Z M34.9607409,25.0652681 C35.8665337,25.0644462 36.6091863,25.8168693 36.6006641,26.7287354 C36.5921419,27.6426562 35.8616638,28.3831621 34.9708865,28.383573 C34.0537307,28.383573 33.3163537,27.6496421 33.3183828,26.7402416 C33.3200061,25.7967334 34.0362804,25.0660899 34.9607409,25.0652681 Z M14.9003533,25.0504333 C15.8199439,25.0496114 16.5589442,25.7938158 16.5625966,26.7217084 C16.5658432,27.6426151 15.8203497,28.3979147 14.9052231,28.3999694 C13.9681821,28.4020241 13.2454147,27.6689149 13.2462263,26.7151334 C13.2462263,25.7786112 13.9673705,25.0516661 14.9003533,25.0504333 Z" id="Combined-Shape" fill="#020203"></path>
    </g>
</svg>
